X:1
T:Gone Are the Days
T:Gone Are the Days
T:Stephen C. Foster; arr. by Daniel B. Towner, 1909
T:Herbert H. Booth
T:PUBLIC DOMAIN
T:PUBLIC DOMAIN
C:Stephen C. Foster; arr. by Daniel B. Towner, 1909
Z:Herbert H. Booth
Z:PUBLIC DOMAIN
%%score ( 1 2 ) ( 3 4 )
L:1/8
Q:1/4=110
M:4/4
K:D
V:1 treble nm="Treble"
V:2 treble 
V:3 bass nm="Bass"
V:4 bass 
V:1
 D2 [DF]3/2 [EG]/ [FA]3 [FA] | [GB] [Bd] [Ac] [GB] [FA]4 | D2 [DF]3/2 [EG]/ [FA]3 [FA] | %3
w: 1.~Gone are the days of|wretch- ed- ness and sin,|Gone are the days of|
w: 2.~Gone are the days a|Sav- ior’s love I spurned,|Gone are the times from|
w: 3.~Come are the joys of~a|heart in blood washed white;|Come is the peace of~a|
 [GB] [FA] [EG] [DF] [CE]4 | D2 [DF]3/2 [EG]/ [FA]3 [FA] | [GB] [Bd] [Ac] [GB] [FA]3 [Fd] | %6
w: con- flicts fierce with- in,|Gone far a- way, no|more my soul to know: My|
w: Cal- v’ry’s scene I turned;|Gone, to be brought a-|gainst me nev- er- more! My|
w: con- science pure and right;|Come to my heart, there|ev- er to re- main, “For|
 [Ec]3/2 [Fd]/ [Ge] [Gc] [Fd] [GB] [DA] [DB] | [DF]2 [CE]2 D4 ||"^Refrain" [FA]4 [DF] [FA]2 z | %9
w: Sav- ior’s blood my heart is keep- ing|white as snow.|I’m hap- py,|
w: Sav- ior’s blood has bought my par- don—|safe and sure.||
w: me to live is Christ” hence- forth, and|“Death is gain!”||
 [FA]4 [DF] [FA]2 [FA]/[FA]/ | [GB] [Bd] [Ac] [GB] [FA]3 | [Fd] | %12
w: I’m hap- py, For with|Je- sus now I live,|And|
w: |||
w: |||
 [Ec]3/2 [Fd]/ [Ge] [Ec] [Dd] [DB] [DA] [DB] | [DF]2 [CE]2 D4 |] %14
w: con- stant peace, and joy, and com- fort|He doth give.|
w: ||
w: ||
V:2
 D2 z2 z4 | x8 | D2 z2 z4 | x8 | D2 z2 z4 | x8 | x8 | z4 D4 || x8 | x8 | x7 | x | x8 | z4 D4 |] %14
V:3
 [D,F,]2 [D,A,]3/2 [E,A,]/ [F,A,]3 [F,A,] | G, [G,B,] [G,A,] G, [D,F,]4 | %2
 [D,F,]2 [D,A,]3/2 [E,A,]/ [F,A,]3 [F,A,] | G, [F,A,] [E,A,] [D,A,] [A,,A,]4 | %4
 [D,F,]2 [D,A,]3/2 [E,A,]/ [F,A,]3 [F,A,] | G, [G,B,] [G,A,] G, [D,F,]3 [D,A,] | %6
 A,3/2 A,/ [A,C] [A,E] [B,,D] [B,,D] [F,D] [F,D] | A,2 [A,,G,]2 [D,F,]4 || [D,D]4 [D,A,] [D,D]2 z | %9
 [D,D]4 [D,A,] [D,D]2 [D,D]/[D,D]/ | [G,D] [G,D] [G,D] [G,D] [D,D]3 | [D,A,] | %12
 [A,,A,]3/2 [A,,A,]/ [A,,A,] [A,,G,] [B,,F,] [G,,G,] [A,,A,] [G,,B,] | [A,,A,]2 [A,,G,]2 [D,F,]4 |] %14
V:4
 x8 | G, z z G, z4 | x8 | G, z z2 z4 | x8 | G, z z G, z4 | A,3/2 A,/ z2 z4 | A,2 z2 z4 || x8 | x8 | %10
 x7 | x | x8 | x8 |] %14

